X:1
T:Health To The Ladies
R:jig
M:6/8
L:1/8
K:A
f|:ecA BAF|AFE EFA|Bdc BAB|cBB B2f|
|ecA BAF|AFE EFA|Bdc BAB|1 cAA A2f:|2 cAA A2A|]
|:cee dff|cee ecA|cee dff|ecA B2A|
|cee dff|cee ecA|Bdc BAB|1 cAA A2A:|2 cAA A2f|]